X:1
T:Over the River and Through the Woods
T:Over the Hills and Through the Woods
T:Traditional
C:Traditional
Z:Public Domain
L:1/4
M:3/4
K:C
V:1 treble 
%%MIDI program 40
V:1
"C" G G G | G E F |"C" G2 A | G2 G |"F" c c c | B2 A |"C" G3- | G z E |"Dm7" F F F |"G7" F2 D | %10
w: O- ver the|riv- er and|through the|woods To|Grand- moth- er's|house we|go|* The|horse knows the|way to|
w: O- ver the|riv- er and|through the|woods to|have a full|day of|play|_ Oh|hear the bells|ring- ing|
w: O- ver the|riv- er and|through the|woods and|straight through the|barn- yard|gate|_ It|seems that we|go so|
"C" E E E |"Am" E2 E |"D7" E2 D | D2 E |"G" D3 |"G7" G2 z |"C" G G G | G E F |"C" G2 A | G2 G | %20
w: car- ry the|sleigh through|white and|drif- ted|snow|_|O- ver the|riv- er and|through the|woods, Oh,|
w: ting- a- ling-|ling for|it is|Christ- mas|Day|_|O- ver the|ri- ver and|through the|woods Trot|
w: dread- ful- ly|slow it|is so|hard to|wait|_|O- ver the|riv- er and|through the|woods Now|
"F" c2 c | B2 A |"C" G3- | G z G |"F" c2 c |"B7/F#" B2 A |"C/G" G2 E |"Am" C2 D |"C/G" E G F | %29
w: how the|wind does|blow.|_ It|stings the|toes and|bites the|nose as|o- ver the|
w: fast my|dap- ple|gray|_ Spring|o'er the|ground just|like a|hound for|this _ is|
w: Grand- ma's|cap I|spy|_ Hur-|rah for|fun the|pud- ding's|done Hur-|rah for the|
"G7" E2 D |"C" C3 |"C" z3 |] %32
w: ground we|go||
w: Christ- mas|Day||
w: pump- kin|pie!||

